X: 11311
Q: "Jig time."
M: 6/8
L: 1/8
K: F
c |:\
faf gec | Bdf edc | def efg | {f}ede f2 H|]
!f!c |\
.F3 .A3 | (.c3 .f3) | !p!fef gfe | dgf edc |\
!f!.d3 .f3 | (g3 b3) | !p!agf dgf | {f}ede f2 |]
g |\
agf edc | gfe dcB | fed cBA | cBA G2A |\
K: Bb
"^minore."[|] !f!e |\
dgg GAB | !p!BAG AFD | Ggg fed | cBA G2A |\
!ff!B3 G3 | A2G FED | GAB Aed | cBA GF"^D.C."=E |]


